src/assets/icons/minus.svg

<svg width="24" height="24" viewBox="0 0 24 24" xmlns="http://www.w3.org/2000/svg">
<path fill-rule="evenodd" clip-rule="evenodd" d="M12.7 12.6998H19.4C19.6 12.6998 19.7 12.5998 19.9 12.4998C19.9 12.2998 20 12.1998 20 11.9998C20 11.7998 19.9 11.6998 19.8 11.4998C19.7 11.3998 19.5 11.2998 19.3 11.2998H12.7H11.3H4.7C4.5 11.2998 4.4 11.3998 4.2 11.4998C4.1 11.6998 4 11.7998 4 11.9998C4 12.1998 4.1 12.2998 4.2 12.4998C4.3 12.5998 4.5 12.6998 4.7 12.6998H11.4H12.7Z" />
</svg>

<svg xmlns="http://www.w3.org/2000/svg" width="24" height="24"><path fill-rule="evenodd" d="M12.7 12.6998h6.7c.2 0 .3-.1.5-.2 0-.2.1-.3.1-.5s-.1-.3-.2-.5c-.1-.1-.3-.2-.5-.2H4.7c-.2 0-.3.1-.5.2-.1.2-.2.3-.2.5s.1.3.2.5c.1.1.3.2.5.2h8Z" clip-rule="evenodd"/></svg>
